products/org.csstudio.iter.css.product/SymbolLibrary_full_hd/SVG/Fluid/Valves/VG On-Off 4-way Valve 2.svg

<?xml version="1.0" encoding="UTF-8" standalone="no"?>
<!--
/*******************************************************************************
* Copyright (c) 2010-2017 ITER Organization. 
* All rights reserved. This program and the accompanying materials
* are made available under the terms of the Eclipse Public License v1.0
* which accompanies this distribution, and is available at
* http://www.eclipse.org/legal/epl-v10.html
******************************************************************************/
-->
<svg
   xmlns:dc="http://purl.org/dc/elements/1.1/"
   xmlns:cc="http://creativecommons.org/ns#"
   xmlns:rdf="http://www.w3.org/1999/02/22-rdf-syntax-ns#"
   xmlns:svg="http://www.w3.org/2000/svg"
   xmlns="http://www.w3.org/2000/svg"
   id="svg2"
   version="1.1"
   viewBox="0 0 50 50"
   height="50pt"
   width="50pt">
  <metadata
     id="metadata23">
    <rdf:RDF>
      <cc:Work
         rdf:about="">
        <dc:format>image/svg+xml</dc:format>
        <dc:type
           rdf:resource="http://purl.org/dc/dcmitype/StillImage" />
        <dc:title></dc:title>
      </cc:Work>
    </rdf:RDF>
  </metadata>
  <defs
     id="defs21" />
  <g
     transform="translate(-0.40039614,-0.4003863)"
     id="surface1">
    <path
       id="path5"
       d="m 1.347656,1.347656 0.027344,0 0,0.027344 -0.027344,0 z"
       style="fill:#a6a6a6;fill-opacity:1;fill-rule:evenodd;stroke:none" />
    <path
       id="path7"
       d="m 48.964844,48.964844 0.02734,0 0,0.02734 -0.02734,0 z"
       style="fill:#a6a6a6;fill-opacity:1;fill-rule:evenodd;stroke:none" />
    <path
       id="path9"
       transform="matrix(1.867678,0,0,1.867678,9.286039,-9.286039)"
       d="m 0.00161877,22.699533 0,-8.49986 17.00808623,8.49986 0,-8.49986 z m 12.75815623,4.249931 -8.508226,0 8.508226,-17.008087 -8.508226,0 z"
       style="fill:#a6a6a6;fill-opacity:1;fill-rule:evenodd;stroke:#000000;stroke-width:0.72000003;stroke-linecap:round;stroke-linejoin:round;stroke-miterlimit:3;stroke-opacity:1" />
    <path
       id="path11"
       transform="matrix(0.996094,0,0,0.996094,4.950924,44.558313)"
       d="m 20.531622,-2.968345 0,8.560784"
       style="fill:none;stroke:#000000;stroke-width:1.35119998;stroke-linecap:round;stroke-linejoin:round;stroke-miterlimit:3;stroke-opacity:1" />
    <path
       id="path13"
       transform="matrix(0.996094,0,0,0.996094,4.950924,44.558313)"
       d="m 36.821818,-19.23109 8.533333,0"
       style="fill:none;stroke:#000000;stroke-width:1.35119998;stroke-linecap:round;stroke-linejoin:round;stroke-miterlimit:3;stroke-opacity:1" />
    <path
       id="path15"
       transform="matrix(0.996094,0,0,0.996094,4.950924,44.558313)"
       d="m 20.531622,-35.497757 0,-8.560784"
       style="fill:none;stroke:#000000;stroke-width:1.35119998;stroke-linecap:round;stroke-linejoin:round;stroke-miterlimit:3;stroke-opacity:1" />
    <path
       id="path17"
       transform="matrix(0.996094,0,0,0.996094,4.950924,44.558313)"
       d="m 4.237504,-19.23109 -8.533333,0"
       style="fill:none;stroke:#000000;stroke-width:1.35119998;stroke-linecap:round;stroke-linejoin:round;stroke-miterlimit:3;stroke-opacity:1" />
  </g>
  <animate
     id="animate12"
     repeatCount="indefinite"
     fill="freeze"
     begin="0s"
     dur="1000ms"
     calcMode="discrete"
     values="1;0"
     attributeName="opacity" />
</svg>

<?xml version="1.0" encoding="UTF-8"?>
<!--
/*******************************************************************************
* Copyright (c) 2010-2018 ITER Organization.
* All rights reserved. This program and the accompanying materials
* are made available under the terms of the Eclipse Public License v1.0
* which accompanies this distribution, and is available at
* http://www.eclipse.org/legal/epl-v10.html
******************************************************************************/
-->
<svg xmlns="http://www.w3.org/2000/svg" xmlns:xlink="http://www.w3.org/1999/xlink" width="29pt" height="29pt" viewBox="0 0 29 29" version="1.1">
<g id="surface0">
<path style=" stroke:none;fill-rule:evenodd;fill:rgb(65.098039%,65.098039%,65.098039%);fill-opacity:1;" d="M 0.546875 0.546875 L 0.5625 0.546875 L 0.5625 0.5625 L 0.546875 0.5625 Z M 0.546875 0.546875 "/>
<path style=" stroke:none;fill-rule:evenodd;fill:rgb(65.098039%,65.098039%,65.098039%);fill-opacity:1;" d="M 27.945312 27.945312 L 27.960938 27.945312 L 27.960938 27.960938 L 27.945312 27.960938 Z M 27.945312 27.945312 "/>
<path style="fill-rule:evenodd;fill:rgb(65.098039%,65.098039%,65.098039%);fill-opacity:1;stroke-width:0.72;stroke-linecap:round;stroke-linejoin:round;stroke:rgb(0%,0%,0%);stroke-opacity:1;stroke-miterlimit:3;" d="M 0.000475089 22.699218 L 0.000475089 14.200859 L 17.008098 22.699218 L 17.008098 14.200859 Z M 12.758918 26.948398 L 4.25329 26.948398 L 12.758918 9.940775 L 4.25329 9.940775 Z M 12.758918 26.948398 " transform="matrix(1.074656,0,0,1.074656,5.112771,-5.573538)"/>
<path style="fill:none;stroke-width:1.3512;stroke-linecap:round;stroke-linejoin:round;stroke:rgb(0%,0%,0%);stroke-opacity:1;stroke-miterlimit:3;" d="M 20.532798 -2.968336 L 20.532798 5.591824 " transform="matrix(0.573149,0,0,0.573149,2.618359,25.408331)"/>
<path style="fill:none;stroke-width:1.3512;stroke-linecap:round;stroke-linejoin:round;stroke:rgb(0%,0%,0%);stroke-opacity:1;stroke-miterlimit:3;" d="M 36.821638 -19.229914 L 45.354536 -19.229914 " transform="matrix(0.573149,0,0,0.573149,2.618359,25.408331)"/>
<path style="fill:none;stroke-width:1.3512;stroke-linecap:round;stroke-linejoin:round;stroke:rgb(0%,0%,0%);stroke-opacity:1;stroke-miterlimit:3;" d="M 20.532798 -35.498307 L 20.532798 -44.058467 " transform="matrix(0.573149,0,0,0.573149,2.618359,25.408331)"/>
<path style="fill:none;stroke-width:1.3512;stroke-linecap:round;stroke-linejoin:round;stroke:rgb(0%,0%,0%);stroke-opacity:1;stroke-miterlimit:3;" d="M 4.237143 -19.229914 L -4.295755 -19.229914 " transform="matrix(0.573149,0,0,0.573149,2.618359,25.408331)"/>
</g>
</svg>
